site/images/about/arrow-down.svg

<svg width="24" height="25" viewBox="0 0 24 25" fill="none" xmlns="http://www.w3.org/2000/svg">
<path d="M12 23.25C6.07 23.25 1.25 18.43 1.25 12.5C1.25 6.57 6.07 1.75 12 1.75C17.93 1.75 22.75 6.57 22.75 12.5C22.75 18.43 17.93 23.25 12 23.25ZM12 3.25C6.9 3.25 2.75 7.4 2.75 12.5C2.75 17.6 6.9 21.75 12 21.75C17.1 21.75 21.25 17.6 21.25 12.5C21.25 7.4 17.1 3.25 12 3.25Z" fill="#4D4D4D"/>
<path d="M12 15.75C11.59 15.75 11.25 15.41 11.25 15V9C11.25 8.59 11.59 8.25 12 8.25C12.41 8.25 12.75 8.59 12.75 9V15C12.75 15.41 12.41 15.75 12 15.75Z" fill="#4D4D4D"/>
<path d="M12.0004 16.7499C11.8104 16.7499 11.6204 16.6799 11.4704 16.5299L8.47043 13.5299C8.18043 13.2399 8.18043 12.7599 8.47043 12.4699C8.76043 12.1799 9.24043 12.1799 9.53043 12.4699L12.0004 14.9399L14.4704 12.4699C14.7604 12.1799 15.2404 12.1799 15.5304 12.4699C15.8204 12.7599 15.8204 13.2399 15.5304 13.5299L12.5304 16.5299C12.3804 16.6799 12.1904 16.7499 12.0004 16.7499Z" fill="#4D4D4D"/>
</svg>

<svg fill="none" viewBox="0 0 24 25"><path fill="#4D4D4D" d="M12 23.25c-5.93 0-10.75-4.82-10.75-10.75S6.07 1.75 12 1.75 22.75 6.57 22.75 12.5 17.93 23.25 12 23.25zm0-20c-5.1 0-9.25 4.15-9.25 9.25S6.9 21.75 12 21.75s9.25-4.15 9.25-9.25S17.1 3.25 12 3.25z"/><path fill="#4D4D4D" d="M12 15.75c-.41 0-.75-.34-.75-.75V9c0-.41.34-.75.75-.75s.75.34.75.75v6c0 .41-.34.75-.75.75z"/><path fill="#4D4D4D" d="M12 16.75c-.19 0-.38-.07-.53-.22l-3-3a.754.754 0 010-1.06c.29-.29.77-.29 1.06 0L12 14.94l2.47-2.47c.29-.29.77-.29 1.06 0 .29.29.29.77 0 1.06l-3 3c-.15.15-.34.22-.53.22z"/></svg>
